dist/upp/assets/img/features/2.svg

<svg width="25" height="24" viewBox="0 0 25 24" fill="none" xmlns="http://www.w3.org/2000/svg">
<path d="M17.333 2H7.33301C6.22844 2 5.33301 2.89543 5.33301 4V20C5.33301 21.1046 6.22844 22 7.33301 22H17.333C18.4376 22 19.333 21.1046 19.333 20V4C19.333 2.89543 18.4376 2 17.333 2Z" stroke="#D8DEFD" stroke-width="2" stroke-linecap="round" stroke-linejoin="round"/>
<path d="M12.333 18H12.343" stroke="#D8DEFD" stroke-width="2" stroke-linecap="round" stroke-linejoin="round"/>
</svg>

<svg width="25" height="24" fill="none" xmlns="http://www.w3.org/2000/svg"><path d="M17.333 2h-10a2 2 0 00-2 2v16a2 2 0 002 2h10a2 2 0 002-2V4a2 2 0 00-2-2zm-5 16h.01" stroke="#D8DEFD" stroke-width="2" stroke-linecap="round" stroke-linejoin="round"/></svg>
